src/assets/img/Login/icons/green_google.svg

<svg width="30" height="30" viewBox="0 0 30 30" fill="none" xmlns="http://www.w3.org/2000/svg">
<g id="Icon" clip-path="url(#clip0_67_207)">
<path id="Vector" d="M29.7083 15.3456C29.7083 14.3259 29.6256 13.3007 29.4493 12.2976H15.3008V18.0738H23.4029C23.0667 19.9368 21.9864 21.5848 20.4046 22.632V26.3799H25.2383C28.0768 23.7674 29.7083 19.9092 29.7083 15.3456Z" fill="#CAFF33"/>
<path id="Vector_2" d="M15.2989 30.0012C19.3445 30.0012 22.7562 28.6728 25.242 26.38L20.4082 22.6321C19.0634 23.547 17.3272 24.0651 15.3044 24.0651C11.3911 24.0651 8.07311 21.425 6.88259 17.8755H1.89453V21.7392C4.44092 26.8044 9.6274 30.0012 15.2989 30.0012Z" fill="#CAFF33"/>
<path id="Vector_3" d="M6.87895 17.8754C6.25063 16.0124 6.25063 13.9952 6.87895 12.1322V8.26855H1.89641C-0.231095 12.507 -0.231095 17.5006 1.89641 21.7391L6.87895 17.8754Z" fill="#CAFF33"/>
<path id="Vector_4" d="M15.2989 5.93708C17.4374 5.90401 19.5043 6.70871 21.0531 8.18583L25.3356 3.90327C22.6239 1.35688 19.0248 -0.0430825 15.2989 0.00101083C9.6274 0.00101083 4.44092 3.19778 1.89453 8.26851L6.87708 12.1322C8.06209 8.57716 11.3856 5.93708 15.2989 5.93708Z" fill="#CAFF33"/>
</g>
<defs>
<clipPath id="clip0_67_207">
<rect width="30" height="30" fill="white"/>
</clipPath>
</defs>
</svg>

<svg xmlns="http://www.w3.org/2000/svg" width="30" height="30" fill="none"><g fill="#CAFF33" clip-path="url(#a)"><path d="M29.708 15.346c0-1.02-.082-2.045-.259-3.048H15.301v5.776h8.102a6.943 6.943 0 0 1-2.998 4.558v3.748h4.833c2.839-2.613 4.47-6.47 4.47-11.034Z"/><path d="M15.299 30.001c4.046 0 7.457-1.328 9.943-3.621l-4.834-3.748c-1.345.915-3.08 1.433-5.104 1.433-3.913 0-7.23-2.64-8.421-6.19H1.895v3.864a15.002 15.002 0 0 0 13.404 8.262Z"/><path d="M6.879 17.875a8.985 8.985 0 0 1 0-5.743V8.27H1.896a15.013 15.013 0 0 0 0 13.47l4.983-3.864Z"/><path d="M15.299 5.937a8.151 8.151 0 0 1 5.754 2.249l4.283-4.283A14.416 14.416 0 0 0 15.299.001 14.997 14.997 0 0 0 1.895 8.269l4.982 3.863c1.185-3.555 4.509-6.195 8.422-6.195Z"/></g><defs><clipPath id="a"><path fill="#fff" d="M0 0h30v30H0z"/></clipPath></defs></svg>
